X: 2142
T: Şeb Çünûn Dil
C: Seyyid Nûh
O: Turkey
F: http://compmusic.upf.edu/node/140
N: hicaz-humayun--nakis--agirsenginsemai--seb_cunun--seyyid_nuh
N: makam= hicaz-humayun
N: form= nakis
N: usul= agirsenginsemai = 6/2
M: 6/2
L: 1/16
K: C _7/8B ^c  
Q: 1/4=43.5
%%MIDI tuningsystem comma53
d8 d6c2 d6z2 c2d2e2f2 e2d2c2d2 c2d2c2B2  | \
w:   | 
d6e2 d2c4d2 c2B2c2B2 A2A2G2A2 G2F2G12  | 
w:   | 
z4G8A8B2c2 B4d2c2 B2c2d8d4  | z4e4 g2f2e2d4f2e2d2 c4e2d2 c2B4e2 d2c2c4  | 
w:   |   | 
d2c2d2c2 e2d2c2B2 A4d2d2 d4e2d2 c2d2c2B2 c2B2c2d2  | 
w:   | 
e2dcc12 z4G8A8A6G2d2=c2  | _1/4B2^A2B12 z4d8e6f2e2d4e2d2c4d2c2_7/8B2 =A2c2c2B4A2z2d4e2d2c4d2c2B2 c2B2A2A2  | 
w:   |   | 
G2A2G2F2 G12z4 G4A2G2 A4B2A2 B4c2B2  | \
w:   | 
c4d4 d4e2d2 c2c2B2A2 B4A4 d4d2c2 B2A2B2A2  | 
w:   | 
B2d2c2B2 c2B2A2A12z4d6c2=B6c2d8e2 g2f2e2c4d4d8d4e2d2c2 B2c2B2c2  | 
w:   | 
d6c2 d8 e2d2d2=c2 d4e4 g2f4e2 d2d2c4  | \
w:   | 
d2=c2d2c2 _1/4B2B2d4 d2^c2_7/8B2c2 B2A2B8A8A2d6d6c2=B6c2d12 z4d8e8e4 g2^f2e2d8e4g2f2e2 dcB2c2d2 c4d4  | 
w:   | 
d8 d4^f4 f4e2d2 d12z4 G8  | A8 B8 d8 e2d2e2d2 c2c2B2c2 B2A2B4  | 
w:   |   | 
d4d2c2 B2A2B2A2 B2d2c2B2 c2B2A2A12z4d6e2e8e6d2=c2 d2e4e8e4f2e2d2  | 
w:   | 
d4e2d2 =c2c4d2 c2=B2B2c2 B2A2c2B2 A2^G2A12  | \
w:   | 
z4A8B8c8B4 c4d12  | 
w:   | 
z4e4 g2f2e2d4f2e2d2 c4e2d2 c2B4e2 d2c2c4  | \
w:   | 
d2c2d2c2 e2d2c2B2 A4d2d2 d4e2d2 c2d2c2B2 c2B2c2d2  | 
w:   | 
e2dcc12 z4G8A8A6G2d2=c2  | _1/4B2^A2B12 z4d8e6f2e2d4e2d2c4d2c2_7/8B2 =A2c2c2B4A2z2d4e2d2c4d2c2B2 c2B2A2A2  | 
w:   |   | 
G2A2G2F2 G12z4 G4A2G2 A4B2A2 B4c2B2  | \
w:   | 
c4d4 d4e2d2 c2c2B2A2 B4A4 d4d2c2 B2A2B2A2  | 
w:   | 
B2d2c2B2 c2B2A2A12z4|
w:   | 


